public/images/pattern.svg

<svg height="88" viewBox="0 0 112 88" width="112" xmlns="http://www.w3.org/2000/svg"><path d="m72 8h-32l-24 10h-16v8h16l24-14h32l24 14h16v-8h-16zm0-8h-32l-24 2h-16v8h16l24-6h32l24 6h16v-8h-16zm0 84h-32l-24-6h-16v8h16l24 2h32l24-2h16v-8h-16zm0-8h-32l-24-14h-16v8h16l24 10h32l24-10h16v-8h-16zm0-12h-32l-24-10h-16v4h16l24 14h32l24-14h16v-4h-16zm0-16h-32l-24-2h-16v4h16l24 6h32l24-6h16v-4h-16zm0-16h-32l-24 6h-16v4h16l24-2h32l24 2h16v-4h-16zm0-16h-32l-24 14h-16v4h16l24-10h32l24 10h16v-4h-16z" fill="#2c343c" fill-rule="evenodd" opacity=".4"/></svg>

<svg width="112" height="88" viewBox="0 0 112 88" xmlns="http://www.w3.org/2000/svg"><path d="M72 8H40L16 18H0v8h16l24-14h32l24 14h16v-8H96L72 8zm0-8H40L16 2H0v8h16l24-6h32l24 6h16V2H96L72 0zm0 84H40l-24-6H0v8h16l24 2h32l24-2h16v-8H96l-24 6zm0-8H40L16 62H0v8h16l24 10h32l24-10h16v-8H96L72 76zm0-12H40L16 54H0v4h16l24 14h32l24-14h16v-4H96L72 64zm0-16H40l-24-2H0v4h16l24 6h32l24-6h16v-4H96l-24 2zm0-16H40l-24 6H0v4h16l24-2h32l24 2h16v-4H96l-24-6zm0-16H40L16 30H0v4h16l24-10h32l24 10h16v-4H96L72 16z" fill="#2C343C" fill-rule="evenodd" opacity=".4"/></svg>
